(G-CODE GENERATED BY FLATCAM v8.994 - www.flatcam.org - Version Date: 2020/11/7)

(Name: main-Edge_Cuts.gbr_cutout_cnc)
(Type: G-code from Geometry)
(Units: MM)

(Created on Thursday, 11 July 2024 at 22:22)

(This preprocessor is used with a motion controller loaded with GRBL firmware.)
(It is configured to be compatible with almost any version of GRBL firmware.)

(TOOL DIAMETER: 2.4 mm)
(Feedrate_XY: 120.0 mm/min)
(Feedrate_Z: 60.0 mm/min)
(Feedrate rapids 1500.0 mm/min)

(Z_Cut: -1.8 mm)
(Z_Move: 2.0 mm)
(Z Start: None mm)
(Z End: 15.0 mm)
(X,Y End: None mm)
(Steps per circle: 64)
(Steps per circle: 64)
(Preprocessor Geometry: GRBL_11_no_M6)

(X range:    0.5450 ...  163.1950  mm)
(Y range:    2.4950 ...   85.1450  mm)

(Spindle Speed: 20000.0 RPM)
G21
G90
G17
G94


G01 F120.00

M5             
G00 Z15.0000
G00 X0.0000 Y0.0000                
T1
(MSG, Change to Tool Dia = 2.4000)
M0
G00 Z15.0000
        
M03 S20000.0
G01 F120.00
G00 X37.8843 Y2.6892
G01 F60.00
G01 Z-1.8000
G01 F120.00
G01 X37.8207 Y2.6939 F120.00
G01 X37.7549 Y2.7019 F120.00
G01 X33.8720 Y3.2779 F120.00
G01 X33.8067 Y3.2893 F120.00
G01 X33.7444 Y3.3033 F120.00
G01 X29.9367 Y4.2571 F120.00
G01 X29.8728 Y4.2748 F120.00
G01 X29.8122 Y4.2948 F120.00
G01 X26.1163 Y5.6173 F120.00
G01 X26.0545 Y5.6412 F120.00
G01 X25.9961 Y5.6670 F120.00
G01 X22.4476 Y7.3454 F120.00
G01 X22.3906 Y7.3740 F120.00
G01 X22.3329 Y7.4066 F120.00
G01 X18.9660 Y9.4247 F120.00
G01 X18.9100 Y9.4602 F120.00
G01 X18.8579 Y9.4970 F120.00
G01 X15.7050 Y11.8353 F120.00
G01 X15.6528 Y11.8761 F120.00
G01 X15.6044 Y11.9178 F120.00
G01 X12.6959 Y14.5540 F120.00
G01 X12.6480 Y14.5997 F120.00
G01 X12.6040 Y14.6459 F120.00
G01 X9.9678 Y17.5544 F120.00
G01 X9.9246 Y17.6047 F120.00
G01 X9.8853 Y17.6550 F120.00
G01 X7.5470 Y20.8079 F120.00
G01 X7.5102 Y20.8600 F120.00
G01 X7.4747 Y20.9160 F120.00
G01 X5.4566 Y24.2829 F120.00
G01 X5.4240 Y24.3406 F120.00
G01 X5.3954 Y24.3976 F120.00
G01 X3.7170 Y27.9461 F120.00
G01 X3.6902 Y28.0067 F120.00
G01 X3.6673 Y28.0663 F120.00
G01 X2.3448 Y31.7622 F120.00
G01 X2.3241 Y31.8252 F120.00
G01 X2.3071 Y31.8867 F120.00
G01 X1.3533 Y35.6944 F120.00
G01 X1.3388 Y35.7591 F120.00
G01 X1.3279 Y35.8220 F120.00
G01 X0.7519 Y39.7049 F120.00
G01 X0.7441 Y39.7682 F120.00
G01 X0.7392 Y39.8343 F120.00
G01 X0.5466 Y43.7550 F120.00
G01 X0.5450 Y43.8212 F120.00
G01 X0.5466 Y43.8850 F120.00
G01 X0.7392 Y47.8057 F120.00
G01 X0.7441 Y47.8718 F120.00
G01 X0.7519 Y47.9351 F120.00
G01 X1.3279 Y51.8180 F120.00
G01 X1.3393 Y51.8833 F120.00
G01 X1.3533 Y51.9456 F120.00
G01 X2.3071 Y55.7533 F120.00
G01 X2.3248 Y55.8172 F120.00
G01 X2.3448 Y55.8778 F120.00
G01 X3.6673 Y59.5737 F120.00
G01 X3.6902 Y59.6333 F120.00
G01 X3.7170 Y59.6939 F120.00
G01 X5.3954 Y63.2424 F120.00
G01 X5.4252 Y63.3015 F120.00
G01 X5.4566 Y63.3571 F120.00
G01 X7.4747 Y66.7240 F120.00
G01 X7.5102 Y66.7800 F120.00
G01 X7.5470 Y66.8321 F120.00
G01 X9.8853 Y69.9850 F120.00
G01 X9.9261 Y70.0372 F120.00
G01 X9.9678 Y70.0856 F120.00
G01 X12.6040 Y72.9941 F120.00
G01 X12.6497 Y73.0420 F120.00
G01 X12.6959 Y73.0860 F120.00
G01 X15.6044 Y75.7222 F120.00
G01 X15.6528 Y75.7639 F120.00
G01 X15.7050 Y75.8047 F120.00
G01 X18.8579 Y78.1430 F120.00
G01 X18.9121 Y78.1811 F120.00
G01 X18.9660 Y78.2153 F120.00
G01 X22.3329 Y80.2334 F120.00
G01 X22.3906 Y80.2660 F120.00
G01 X22.4476 Y80.2946 F120.00
G01 X25.9961 Y81.9730 F120.00
G01 X26.0567 Y81.9998 F120.00
G01 X26.1163 Y82.0227 F120.00
G01 X29.8122 Y83.3452 F120.00
G01 X29.8752 Y83.3659 F120.00
G01 X29.9367 Y83.3829 F120.00
G01 X33.7444 Y84.3367 F120.00
G01 X33.8091 Y84.3512 F120.00
G01 X33.8720 Y84.3621 F120.00
G01 X37.7549 Y84.9381 F120.00
G01 X37.8207 Y84.9461 F120.00
G01 X37.8843 Y84.9508 F120.00
G01 X41.8050 Y85.1434 F120.00
G01 X41.8369 Y85.1446 F120.00
G01 X41.8700 Y85.1450 F120.00
G01 X121.8700 Y85.1450 F120.00
G01 X121.9019 Y85.1446 F120.00
G01 X121.9350 Y85.1434 F120.00
G01 X125.8557 Y84.9508 F120.00
G01 X125.9218 Y84.9459 F120.00
G01 X125.9851 Y84.9381 F120.00
G01 X129.8680 Y84.3621 F120.00
G01 X129.9333 Y84.3507 F120.00
G01 X129.9956 Y84.3367 F120.00
G01 X133.8033 Y83.3829 F120.00
G01 X133.8672 Y83.3652 F120.00
G01 X133.9278 Y83.3452 F120.00
G01 X137.6237 Y82.0227 F120.00
G01 X137.6855 Y81.9988 F120.00
G01 X137.7439 Y81.9730 F120.00
G01 X141.2924 Y80.2946 F120.00
G01 X141.3494 Y80.2660 F120.00
G01 X141.4071 Y80.2334 F120.00
G01 X144.7740 Y78.2153 F120.00
G01 X144.8300 Y78.1798 F120.00
G01 X144.8821 Y78.1430 F120.00
G01 X148.0350 Y75.8047 F120.00
G01 X148.0872 Y75.7639 F120.00
G01 X148.1356 Y75.7222 F120.00
G01 X151.0441 Y73.0860 F120.00
G01 X151.0920 Y73.0403 F120.00
G01 X151.1360 Y72.9941 F120.00
G01 X153.7722 Y70.0856 F120.00
G01 X153.8154 Y70.0353 F120.00
G01 X153.8547 Y69.9850 F120.00
G01 X156.1930 Y66.8321 F120.00
G01 X156.2311 Y66.7779 F120.00
G01 X156.2653 Y66.7240 F120.00
G01 X158.2834 Y63.3571 F120.00
G01 X158.3160 Y63.2994 F120.00
G01 X158.3446 Y63.2424 F120.00
G01 X160.0230 Y59.6939 F120.00
G01 X160.0498 Y59.6333 F120.00
G01 X160.0727 Y59.5737 F120.00
G01 X161.3952 Y55.8778 F120.00
G01 X161.4159 Y55.8148 F120.00
G01 X161.4329 Y55.7533 F120.00
G01 X162.3867 Y51.9456 F120.00
G01 X162.4012 Y51.8809 F120.00
G01 X162.4121 Y51.8180 F120.00
G01 X162.9881 Y47.9351 F120.00
G01 X162.9961 Y47.8693 F120.00
G01 X163.0008 Y47.8057 F120.00
G01 X163.1934 Y43.8850 F120.00
G01 X163.1950 Y43.8188 F120.00
G01 X163.1934 Y43.7550 F120.00
G01 X163.0008 Y39.8343 F120.00
G01 X162.9959 Y39.7682 F120.00
G01 X162.9881 Y39.7049 F120.00
G01 X162.4121 Y35.8220 F120.00
G01 X162.4007 Y35.7567 F120.00
G01 X162.3867 Y35.6944 F120.00
G01 X161.4329 Y31.8867 F120.00
G01 X161.4152 Y31.8228 F120.00
G01 X161.3952 Y31.7622 F120.00
G01 X160.0727 Y28.0663 F120.00
G01 X160.0488 Y28.0045 F120.00
G01 X160.0230 Y27.9461 F120.00
G01 X158.3446 Y24.3976 F120.00
G01 X158.3148 Y24.3385 F120.00
G01 X158.2834 Y24.2829 F120.00
G01 X156.2653 Y20.9160 F120.00
G01 X156.2298 Y20.8600 F120.00
G01 X156.1930 Y20.8079 F120.00
G01 X153.8547 Y17.6550 F120.00
G01 X153.8139 Y17.6028 F120.00
G01 X153.7722 Y17.5544 F120.00
G01 X151.1360 Y14.6459 F120.00
G01 X151.0903 Y14.5980 F120.00
G01 X151.0441 Y14.5540 F120.00
G01 X148.1356 Y11.9178 F120.00
G01 X148.0853 Y11.8746 F120.00
G01 X148.0350 Y11.8353 F120.00
G01 X144.8821 Y9.4970 F120.00
G01 X144.8279 Y9.4589 F120.00
G01 X144.7740 Y9.4247 F120.00
G01 X141.4071 Y7.4066 F120.00
G01 X141.3494 Y7.3740 F120.00
G01 X141.2924 Y7.3454 F120.00
G01 X137.7439 Y5.6670 F120.00
G01 X137.6833 Y5.6402 F120.00
G01 X137.6237 Y5.6173 F120.00
G01 X133.9278 Y4.2948 F120.00
G01 X133.8648 Y4.2741 F120.00
G01 X133.8033 Y4.2571 F120.00
G01 X129.9956 Y3.3033 F120.00
G01 X129.9309 Y3.2888 F120.00
G01 X129.8680 Y3.2779 F120.00
G01 X125.9851 Y2.7019 F120.00
G01 X125.9193 Y2.6939 F120.00
G01 X125.8557 Y2.6892 F120.00
G01 X121.9350 Y2.4966 F120.00
G01 X121.9031 Y2.4954 F120.00
G01 X121.8700 Y2.4950 F120.00
G01 X41.8700 Y2.4950 F120.00
G01 X41.8369 Y2.4954 F120.00
G01 X41.8050 Y2.4966 F120.00
G01 X37.8843 Y2.6892 F120.00
G00 Z2.0000
M05
G00 Z2.0000
G00 Z15.00


