(G-CODE GENERATED BY FLATCAM v8.994 - www.flatcam.org - Version Date: 2020/11/7)

(Name: main.drl_cnc)
(Type: G-code from Geometry)
(Units: MM)

(Created on Thursday, 11 July 2024 at 22:18)

(This preprocessor is used with a motion controller loaded with GRBL firmware.)
(It is configured to be compatible with almost any version of GRBL firmware.)


(TOOLS DIAMETER: )
(Tool: 1 -> Dia: 0.8128)
(Tool: 2 -> Dia: 1.016)
(Tool: 3 -> Dia: 1.4223999999999999)
(Tool: 4 -> Dia: 1.6764)

(FEEDRATE Z: )
(Tool: 1 -> Feedrate: 300.0)
(Tool: 2 -> Feedrate: 300.0)
(Tool: 3 -> Feedrate: 300.0)
(Tool: 4 -> Feedrate: 300.0)

(FEEDRATE RAPIDS: )
(Tool: 1 -> Feedrate Rapids: 1500)
(Tool: 2 -> Feedrate Rapids: 1500)
(Tool: 3 -> Feedrate Rapids: 1500)
(Tool: 4 -> Feedrate Rapids: 1500)

(Z_CUT: )
(Tool: 1 -> Z_Cut: -1.7)
(Tool: 2 -> Z_Cut: -1.7)
(Tool: 3 -> Z_Cut: -1.7)
(Tool: 4 -> Z_Cut: -1.7)

(Tools Offset: )
(Tool: 1 -> Offset Z: 0.0)
(Tool: 2 -> Offset Z: 0.0)
(Tool: 3 -> Offset Z: 0.0)
(Tool: 4 -> Offset Z: 0.0)

(Z_MOVE: )
(Tool: 1 -> Z_Move: 2.0)
(Tool: 2 -> Z_Move: 2.0)
(Tool: 3 -> Z_Move: 2.0)
(Tool: 4 -> Z_Move: 2.0)

(Z Toolchange: 15.0 mm)
(X,Y Toolchange: 0.0000, 0.0000 mm)
(Z Start: None mm)
(Z End: 0.5 mm)
(X,Y End: None mm)
(Steps per circle: 64)
(Steps per circle: 64)
(Preprocessor Excellon: GRBL_11_no_M6)

(X range:   13.5236 ...  154.0364  mm)
(Y range:    8.6106 ...   81.6864  mm)

(Spindle Speed: 20000 RPM)
G21
G90
G17
G94


G01 F300.00

M5             
G00 Z15.0000
G00 X0.0000 Y0.0000                
T1
(MSG, Change to Tool Dia = 0.8128 ||| Total drills for tool T1 = 106)
M0
G00 Z15.0000
        
G01 F300.00
M03 S20000
G00 X13.9300 Y55.8800
G01 Z-1.7000
G01 Z0
G00 Z2.0000
G00 X13.9300 Y50.8000
G01 Z-1.7000
G01 Z0
G00 Z2.0000
G00 X13.9300 Y45.7200
G01 Z-1.7000
G01 Z0
G00 Z2.0000
G00 X15.2000 Y38.1000
G01 Z-1.7000
G01 Z0
G00 Z2.0000
G00 X25.3600 Y38.1000
G01 Z-1.7000
G01 Z0
G00 Z2.0000
G00 X35.0120 Y38.6131
G01 Z-1.7000
G01 Z0
G00 Z2.0000
G00 X39.3859 Y35.5651
G01 Z-1.7000
G01 Z0
G00 Z2.0000
G00 X44.7631 Y35.8165
G01 Z-1.7000
G01 Z0
G00 Z2.0000
G00 X45.6800 Y30.4800
G01 Z-1.7000
G01 Z0
G00 Z2.0000
G00 X44.4100 Y25.4000
G01 Z-1.7000
G01 Z0
G00 Z2.0000
G00 X35.5200 Y24.2824
G01 Z-1.7000
G01 Z0
G00 Z2.0000
G00 X35.5200 Y20.3200
G01 Z-1.7000
G01 Z0
G00 Z2.0000
G00 X45.6800 Y14.6812
G01 Z-1.7000
G01 Z0
G00 Z2.0000
G00 X45.6800 Y10.7188
G01 Z-1.7000
G01 Z0
G00 Z2.0000
G00 X57.1100 Y10.1600
G01 Z-1.7000
G01 Z0
G00 Z2.0000
G00 X57.1100 Y15.2400
G01 Z-1.7000
G01 Z0
G00 Z2.0000
G00 X64.7300 Y15.2400
G01 Z-1.7000
G01 Z0
G00 Z2.0000
G00 X64.7300 Y10.1600
G01 Z-1.7000
G01 Z0
G00 Z2.0000
G00 X72.3500 Y15.2400
G01 Z-1.7000
G01 Z0
G00 Z2.0000
G00 X79.9700 Y15.2400
G01 Z-1.7000
G01 Z0
G00 Z2.0000
G00 X90.2570 Y10.1600
G01 Z-1.7000
G01 Z0
G00 Z2.0000
G00 X90.2570 Y17.7800
G01 Z-1.7000
G01 Z0
G00 Z2.0000
G00 X78.7000 Y27.9400
G01 Z-1.7000
G01 Z0
G00 Z2.0000
G00 X82.5100 Y33.0200
G01 Z-1.7000
G01 Z0
G00 Z2.0000
G00 X86.3200 Y31.7500
G01 Z-1.7000
G01 Z0
G00 Z2.0000
G00 X86.3200 Y44.4500
G01 Z-1.7000
G01 Z0
G00 Z2.0000
G00 X100.2900 Y43.1800
G01 Z-1.7000
G01 Z0
G00 Z2.0000
G00 X112.9900 Y43.1800
G01 Z-1.7000
G01 Z0
G00 Z2.0000
G00 X118.4358 Y44.4500
G01 Z-1.7000
G01 Z0
G00 Z2.0000
G00 X119.9369 Y39.4462
G01 Z-1.7000
G01 Z0
G00 Z2.0000
G00 X123.9399 Y36.4465
G01 Z-1.7000
G01 Z0
G00 Z2.0000
G00 X129.5711 Y36.3220
G01 Z-1.7000
G01 Z0
G00 Z2.0000
G00 X133.6910 Y39.2430
G01 Z-1.7000
G01 Z0
G00 Z2.0000
G00 X130.7700 Y30.4800
G01 Z-1.7000
G01 Z0
G00 Z2.0000
G00 X126.9600 Y31.7500
G01 Z-1.7000
G01 Z0
G00 Z2.0000
G00 X112.8630 Y17.7800
G01 Z-1.7000
G01 Z0
G00 Z2.0000
G00 X112.8630 Y10.1600
G01 Z-1.7000
G01 Z0
G00 Z2.0000
G00 X123.1500 Y9.4488
G01 Z-1.7000
G01 Z0
G00 Z2.0000
G00 X123.1500 Y13.4112
G01 Z-1.7000
G01 Z0
G00 Z2.0000
G00 X126.9600 Y19.0500
G01 Z-1.7000
G01 Z0
G00 Z2.0000
G00 X130.7700 Y22.8600
G01 Z-1.7000
G01 Z0
G00 Z2.0000
G00 X143.4700 Y22.8600
G01 Z-1.7000
G01 Z0
G00 Z2.0000
G00 X143.4700 Y30.4800
G01 Z-1.7000
G01 Z0
G00 Z2.0000
G00 X144.7400 Y40.6400
G01 Z-1.7000
G01 Z0
G00 Z2.0000
G00 X149.8200 Y40.6400
G01 Z-1.7000
G01 Z0
G00 Z2.0000
G00 X153.6300 Y50.8000
G01 Z-1.7000
G01 Z0
G00 Z2.0000
G00 X153.6300 Y55.8800
G01 Z-1.7000
G01 Z0
G00 Z2.0000
G00 X151.0900 Y60.9600
G01 Z-1.7000
G01 Z0
G00 Z2.0000
G00 X138.3900 Y60.9600
G01 Z-1.7000
G01 Z0
G00 Z2.0000
G00 X140.9300 Y55.8800
G01 Z-1.7000
G01 Z0
G00 Z2.0000
G00 X140.9300 Y50.8000
G01 Z-1.7000
G01 Z0
G00 Z2.0000
G00 X133.8180 Y49.6570
G01 Z-1.7000
G01 Z0
G00 Z2.0000
G00 X129.4441 Y52.7050
G01 Z-1.7000
G01 Z0
G00 Z2.0000
G00 X124.0669 Y52.4535
G01 Z-1.7000
G01 Z0
G00 Z2.0000
G00 X120.1909 Y49.7078
G01 Z-1.7000
G01 Z0
G00 Z2.0000
G00 X119.3400 Y66.0400
G01 Z-1.7000
G01 Z0
G00 Z2.0000
G00 X124.4200 Y66.0400
G01 Z-1.7000
G01 Z0
G00 Z2.0000
G00 X133.1830 Y76.2000
G01 Z-1.7000
G01 Z0
G00 Z2.0000
G00 X110.5770 Y76.2000
G01 Z-1.7000
G01 Z0
G00 Z2.0000
G00 X103.5412 Y76.2000
G01 Z-1.7000
G01 Z0
G00 Z2.0000
G00 X99.5788 Y76.2000
G01 Z-1.7000
G01 Z0
G00 Z2.0000
G00 X99.0200 Y62.2300
G01 Z-1.7000
G01 Z0
G00 Z2.0000
G00 X107.9100 Y53.4924
G01 Z-1.7000
G01 Z0
G00 Z2.0000
G00 X107.9100 Y49.5300
G01 Z-1.7000
G01 Z0
G00 Z2.0000
G00 X99.0200 Y49.5300
G01 Z-1.7000
G01 Z0
G00 Z2.0000
G00 X90.0030 Y50.8000
G01 Z-1.7000
G01 Z0
G00 Z2.0000
G00 X90.1300 Y60.9600
G01 Z-1.7000
G01 Z0
G00 Z2.0000
G00 X93.9400 Y64.7700
G01 Z-1.7000
G01 Z0
G00 Z2.0000
G00 X90.1300 Y71.1200
G01 Z-1.7000
G01 Z0
G00 Z2.0000
G00 X90.1300 Y76.2000
G01 Z-1.7000
G01 Z0
G00 Z2.0000
G00 X93.9400 Y77.4700
G01 Z-1.7000
G01 Z0
G00 Z2.0000
G00 X90.1300 Y81.2800
G01 Z-1.7000
G01 Z0
G00 Z2.0000
G00 X77.4300 Y81.2800
G01 Z-1.7000
G01 Z0
G00 Z2.0000
G00 X77.4300 Y76.2000
G01 Z-1.7000
G01 Z0
G00 Z2.0000
G00 X77.4300 Y71.1200
G01 Z-1.7000
G01 Z0
G00 Z2.0000
G00 X79.9700 Y66.0400
G01 Z-1.7000
G01 Z0
G00 Z2.0000
G00 X79.9700 Y55.8800
G01 Z-1.7000
G01 Z0
G00 Z2.0000
G00 X77.4300 Y60.9600
G01 Z-1.7000
G01 Z0
G00 Z2.0000
G00 X67.2700 Y66.0400
G01 Z-1.7000
G01 Z0
G00 Z2.0000
G00 X54.7224 Y76.2000
G01 Z-1.7000
G01 Z0
G00 Z2.0000
G00 X50.7600 Y76.2000
G01 Z-1.7000
G01 Z0
G00 Z2.0000
G00 X43.1400 Y63.5000
G01 Z-1.7000
G01 Z0
G00 Z2.0000
G00 X53.3000 Y63.5000
G01 Z-1.7000
G01 Z0
G00 Z2.0000
G00 X58.3800 Y55.8800
G01 Z-1.7000
G01 Z0
G00 Z2.0000
G00 X62.3424 Y55.8800
G01 Z-1.7000
G01 Z0
G00 Z2.0000
G00 X67.2700 Y55.8800
G01 Z-1.7000
G01 Z0
G00 Z2.0000
G00 X67.3970 Y50.8000
G01 Z-1.7000
G01 Z0
G00 Z2.0000
G00 X69.8100 Y45.7200
G01 Z-1.7000
G01 Z0
G00 Z2.0000
G00 X69.8100 Y40.6400
G01 Z-1.7000
G01 Z0
G00 Z2.0000
G00 X69.8100 Y33.0200
G01 Z-1.7000
G01 Z0
G00 Z2.0000
G00 X68.5400 Y27.9400
G01 Z-1.7000
G01 Z0
G00 Z2.0000
G00 X63.4600 Y25.4000
G01 Z-1.7000
G01 Z0
G00 Z2.0000
G00 X57.1100 Y25.4000
G01 Z-1.7000
G01 Z0
G00 Z2.0000
G00 X58.3800 Y30.4800
G01 Z-1.7000
G01 Z0
G00 Z2.0000
G00 X63.4600 Y35.5600
G01 Z-1.7000
G01 Z0
G00 Z2.0000
G00 X57.1100 Y45.7200
G01 Z-1.7000
G01 Z0
G00 Z2.0000
G00 X57.1100 Y40.6400
G01 Z-1.7000
G01 Z0
G00 Z2.0000
G00 X48.6391 Y38.5623
G01 Z-1.7000
G01 Z0
G00 Z2.0000
G00 X50.3942 Y43.8201
G01 Z-1.7000
G01 Z0
G00 Z2.0000
G00 X48.8931 Y48.8239
G01 Z-1.7000
G01 Z0
G00 Z2.0000
G00 X44.8901 Y51.8236
G01 Z-1.7000
G01 Z0
G00 Z2.0000
G00 X39.2589 Y51.9481
G01 Z-1.7000
G01 Z0
G00 Z2.0000
G00 X35.1390 Y49.0271
G01 Z-1.7000
G01 Z0
G00 Z2.0000
G00 X26.6300 Y45.7200
G01 Z-1.7000
G01 Z0
G00 Z2.0000
G00 X26.6300 Y50.8000
G01 Z-1.7000
G01 Z0
G00 Z2.0000
G00 X26.6300 Y55.8800
G01 Z-1.7000
G01 Z0
G00 Z2.0000
M05
G00 Z0.50


